Catalina-light/actions/16/transform-affect-stroke.svg

<svg xmlns="http://www.w3.org/2000/svg" width="16" height="16" viewBox="0 0 16 16">
 <defs>
  <style id="current-color-scheme" type="text/css">
   .ColorScheme-Text { color:#5c616c; } .ColorScheme-Highlight { color:#5294e2; }
  </style>
 </defs>
 <path style="fill:currentColor" class="ColorScheme-Text" d="M 2.015625 2 L 2.015625 4.0605469 L 2.9863281 4.0605469 L 12.029297 4.0605469 L 12.029297 7.0195312 L 12.029297 8.046875 L 13.96875 8.046875 L 13.96875 7.0195312 L 13.96875 2 L 2.9863281 2 L 2.015625 2 z M 2 6.0039062 L 2 7.0351562 L 2.484375 7.0351562 L 9.0097656 7.0351562 L 9.0097656 8.515625 L 9.0097656 9.0292969 L 9.9785156 9.0292969 L 9.9785156 8.515625 L 9.9785156 6.0039062 L 2.484375 6.0039062 L 2 6.0039062 z M 10.996094 9.0136719 L 10.996094 11.007812 L 8.9941406 11.007812 L 8.9941406 12.005859 L 10.996094 12.005859 L 10.996094 14 L 14 11.507812 L 10.996094 9.0136719 z M 3.9863281 10.992188 L 3.9863281 12.023438 L 4.9882812 12.023438 L 4.9882812 10.992188 L 3.9863281 10.992188 z M 6.0058594 10.992188 L 6.0058594 12.023438 L 6.4902344 12.023438 L 7.4921875 12.023438 L 7.9765625 12.023438 L 7.9765625 10.992188 L 7.4921875 10.992188 L 6.4902344 10.992188 L 6.0058594 10.992188 z"/>
</svg>

<svg width="16" height="16" viewBox="0 0 16 16" xmlns="http://www.w3.org/2000/svg">
<defs>
<style id="current-color-scheme" type="text/css">.ColorScheme-Text { color:#5c616c; } .ColorScheme-Highlight { color:#5294e2; }</style>
</defs>
<path class="ColorScheme-Text" d="m2.0156 2v2.0605h0.9707 9.043v2.959 1.0273h1.9395v-1.0273-5.0195h-10.982-0.9707zm-0.015625 4.0039v1.0312h0.48438 6.5254v1.4805 0.51367h0.96875v-0.51367-2.5117h-7.4941-0.48438zm8.9961 3.0098v1.9941h-2.002v0.99805h2.002v1.9941l3.0039-2.4922-3.0039-2.4941zm-7.0098 1.9785v1.0312h1.002v-1.0312h-1.002zm2.0195 0v1.0312h0.48438 1.002 0.48438v-1.0312h-0.48438-1.002-0.48438z" fill="currentColor"/>
</svg>
